exported-svg/repeat.svg

<svg height="24" viewBox="0 0 24 24" width="24" xmlns="http://www.w3.org/2000/svg"><path d="m20.2928932 5-3.1464466-3.14644661c-.1952621-.19526215-.1952621-.51184463 0-.70710678.1952622-.19526215.5118446-.19526215.7071068 0l4 4c.1952621.19526215.1952621.51184463 0 .70710678l-4 4c-.1952622.19526211-.5118446.19526211-.7071068 0-.1952621-.19526215-.1952621-.51184463 0-.70710678l3.1464466-3.14644661h-12.7928932c-1.93299662 0-3.5 1.56700338-3.5 3.5v2c0 .2761424-.22385763.5-.5.5s-.5-.2238576-.5-.5v-2c0-2.48528137 2.01471863-4.5 4.5-4.5zm-15.58578642 14h12.79289322c1.9329966 0 3.5-1.5670034 3.5-3.5v-2c0-.2761424.2238576-.5.5-.5s.5.2238576.5.5v2c0 2.4852814-2.0147186 4.5-4.5 4.5h-12.79289322l3.14644661 3.1464466c.19526215.1952622.19526215.5118446 0 .7071068-.19526215.1952621-.51184463.1952621-.70710678 0l-4-4c-.19526215-.1952622-.19526215-.5118446 0-.7071068l4-4c.19526215-.1952621.51184463-.1952621.70710678 0 .19526215.1952622.19526215.5118446 0 .7071068z"/></svg>

<?xml version="1.0" encoding="UTF-8"?>
<svg width="24px" height="24px" viewBox="0 0 24 24" version="1.1" xmlns="http://www.w3.org/2000/svg" xmlns:xlink="http://www.w3.org/1999/xlink">
    <!-- Generator: Sketch 55.2 (78181) - https://sketchapp.com -->
    <title>repeat</title>
    <desc>Created with Sketch.</desc>
    <g id="repeat" stroke="none" stroke-width="1" fill="none" fill-rule="evenodd">
        <path d="M20.2928932,5 L17.1464466,1.85355339 C16.9511845,1.65829124 16.9511845,1.34170876 17.1464466,1.14644661 C17.3417088,0.951184464 17.6582912,0.951184464 17.8535534,1.14644661 L21.8535534,5.14644661 C22.0488155,5.34170876 22.0488155,5.65829124 21.8535534,5.85355339 L17.8535534,9.85355339 C17.6582912,10.0488155 17.3417088,10.0488155 17.1464466,9.85355339 C16.9511845,9.65829124 16.9511845,9.34170876 17.1464466,9.14644661 L20.2928932,6 L7.5,6 C5.56700338,6 4,7.56700338 4,9.5 L4,11.5 C4,11.7761424 3.77614237,12 3.5,12 C3.22385763,12 3,11.7761424 3,11.5 L3,9.5 C3,7.01471863 5.01471863,5 7.5,5 L20.2928932,5 Z" id="Combined-Shape" fill="#000000" fill-rule="nonzero"></path>
        <path d="M4.70710678,19 L17.5,19 C19.4329966,19 21,17.4329966 21,15.5 L21,13.5 C21,13.2238576 21.2238576,13 21.5,13 C21.7761424,13 22,13.2238576 22,13.5 L22,15.5 C22,17.9852814 19.9852814,20 17.5,20 L4.70710678,20 L7.85355339,23.1464466 C8.04881554,23.3417088 8.04881554,23.6582912 7.85355339,23.8535534 C7.65829124,24.0488155 7.34170876,24.0488155 7.14644661,23.8535534 L3.14644661,19.8535534 C2.95118446,19.6582912 2.95118446,19.3417088 3.14644661,19.1464466 L7.14644661,15.1464466 C7.34170876,14.9511845 7.65829124,14.9511845 7.85355339,15.1464466 C8.04881554,15.3417088 8.04881554,15.6582912 7.85355339,15.8535534 L4.70710678,19 Z" id="Combined-Shape" fill="#000000" fill-rule="nonzero"></path>
    </g>
</svg>
